packages/icons/src/components/Icon/assets/small-solid/settings.svg

<svg width="16" height="16" viewBox="0 0 16 16" fill="none" xmlns="http://www.w3.org/2000/svg">
<path fill-rule="evenodd" clip-rule="evenodd" d="M6.10826 1.45025C6.13382 1.19465 6.3489 1 6.60578 1H8.70079C8.95767 1 9.17275 1.19465 9.19831 1.45025L9.38405 3.30766C9.92258 3.50637 10.4175 3.79513 10.8505 4.15568L12.5533 3.38721C12.7875 3.28155 13.0636 3.37049 13.192 3.59295L14.2395 5.40728C14.368 5.62975 14.3069 5.91334 14.0984 6.06327L12.5819 7.15339C12.6288 7.42858 12.6533 7.71143 12.6533 8C12.6533 8.28864 12.6288 8.57157 12.5819 8.84682L14.0984 9.93696C14.3069 10.0869 14.368 10.3705 14.2395 10.5929L13.192 12.4073C13.0636 12.6297 12.7875 12.7187 12.5533 12.613L10.8504 11.8445C10.4174 12.205 9.9225 12.4937 9.38405 12.6923L9.19831 14.5498C9.17275 14.8054 8.95767 15 8.70079 15H6.60578C6.3489 15 6.13382 14.8054 6.10826 14.5498L5.92252 12.6923C5.38399 12.4936 4.88907 12.2049 4.45603 11.8443L2.75322 12.6128C2.51909 12.7185 2.24298 12.6295 2.11454 12.4071L1.06703 10.5927C0.938595 10.3703 0.999623 10.0867 1.2082 9.93673L2.72466 8.84661C2.67773 8.57142 2.65329 8.28857 2.65329 8C2.65329 7.71136 2.67774 7.42843 2.7247 7.15318L1.2082 6.06304C0.999622 5.9131 0.938594 5.62951 1.06703 5.40705L2.11454 3.59272C2.24298 3.37025 2.51909 3.28131 2.75322 3.38698L4.45621 4.15552C4.88921 3.79505 5.38407 3.50634 5.92252 3.30766L6.10826 1.45025ZM5.93079 9.01699L5.90943 8.98C5.74633 8.69039 5.65329 8.35606 5.65329 8C5.65329 6.89543 6.54872 6 7.65329 6C8.38655 6 9.02765 6.39461 9.37581 6.98306L9.39711 7.01995C9.56023 7.30957 9.65329 7.64392 9.65329 8C9.65329 9.10457 8.75785 10 7.65329 10C6.92004 10 6.27895 9.60541 5.93079 9.01699Z" fill="black"/>
</svg>

<svg xmlns="http://www.w3.org/2000/svg" width="16" height="16" fill="none" viewBox="0 0 16 16">
    <path d="M6.108 1.45A.5.5 0 0 1 6.606 1H8.7a.5.5 0 0 1 .497.45l.186 1.858a5 5 0 0 1 1.467.848l1.702-.769a.5.5 0 0 1 .639.206l1.047 1.814a.5.5 0 0 1-.14.656l-1.517 1.09a5 5 0 0 1 0 1.694l1.516 1.09a.5.5 0 0 1 .141.656l-1.047 1.814a.5.5 0 0 1-.639.206l-1.703-.768c-.433.36-.928.649-1.466.847l-.186 1.858A.5.5 0 0 1 8.7 15H6.606a.5.5 0 0 1-.498-.45l-.185-1.858a5 5 0 0 1-1.467-.848l-1.703.769a.5.5 0 0 1-.638-.206l-1.048-1.814a.5.5 0 0 1 .141-.656l1.517-1.09a5 5 0 0 1 0-1.694l-1.517-1.09a.5.5 0 0 1-.141-.656l1.048-1.814a.5.5 0 0 1 .638-.206l1.703.769c.433-.36.928-.65 1.467-.848zm-.177 7.567-.022-.037a2 2 0 0 1 3.466-1.997l.022.037a2 2 0 0 1-3.466 1.997" clip-rule="evenodd"/>
</svg>
